assets/icons/navigation/tab_barcode_icon_active.svg

<svg fill="none" height="20" viewBox="0 0 20 20" width="20" xmlns="http://www.w3.org/2000/svg" xmlns:xlink="http://www.w3.org/1999/xlink"><linearGradient id="a" gradientUnits="userSpaceOnUse" x1="24.706" x2=".745587" y1="15.4" y2="5.01962"><stop offset="0" stop-color="#1c9cfc"/><stop offset="1" stop-color="#4cdfff"/></linearGradient><path clip-rule="evenodd" d="m1 0c-.552285 0-1 .447716-1 1v6.88889c0 .55228.447716 1 1 1h6.88889c.55228 0 1-.44772 1-1v-6.88889c0-.552285-.44772-1-1-1zm0 11.1111c-.552285 0-1 .4477-1 1v6.8889c0 .5523.447716 1 1 1h6.88889c.55228 0 1-.4477 1-1v-6.8889c0-.5523-.44772-1-1-1zm10.1112-10.1111c0-.552284.4477-1 1-1h6.8889c.5523 0 1 .447715 1 1v6.88889c0 .55228-.4477 1-1 1h-6.8889c-.5523 0-1-.44772-1-1zm1.3071 13.3878h-1.307v-3.2767h4.4785v1.2917h-3.1715zm7.5813.6122h-3.3334v-1.2917h2.0546v-2.5972h1.2788zm-2.2222 5h2.2223v-4.4444h-1.355v3.3333h-.8673zm-1.2512 0h-5.4151v-3.3292h1.307v2.2181h2.8011v-3.3333h1.307z" fill="url(#a)" fill-rule="evenodd"/></svg>

<svg width="20" height="20" viewBox="0 0 20 20" fill="none" xmlns="http://www.w3.org/2000/svg">
<path fill-rule="evenodd" clip-rule="evenodd" d="M1 0C0.447715 0 0 0.447716 0 1V7.88889C0 8.44117 0.447716 8.88889 1 8.88889H7.88889C8.44117 8.88889 8.88889 8.44117 8.88889 7.88889V1C8.88889 0.447715 8.44117 0 7.88889 0H1ZM1 11.1111C0.447715 11.1111 0 11.5588 0 12.1111V19C0 19.5523 0.447716 20 1 20H7.88889C8.44117 20 8.88889 19.5523 8.88889 19V12.1111C8.88889 11.5588 8.44117 11.1111 7.88889 11.1111H1ZM11.1112 1C11.1112 0.447716 11.5589 0 12.1112 0H19.0001C19.5524 0 20.0001 0.447715 20.0001 1V7.88889C20.0001 8.44117 19.5524 8.88889 19.0001 8.88889H12.1112C11.5589 8.88889 11.1112 8.44117 11.1112 7.88889V1ZM12.4183 14.3878H11.1113V11.1111H15.5898V12.4028H12.4183V14.3878ZM19.9996 15H16.6662V13.7083H18.7208V11.1111H19.9996V15ZM17.7774 20H19.9997V15.5556H18.6447V18.8889H17.7774V20ZM16.5262 20H11.1111V16.6708H12.4181V18.8889H15.2192V15.5556H16.5262V20Z" fill="url(#paint0_linear_13:1530)"/>
<defs>
<linearGradient id="paint0_linear_13:1530" x1="24.706" y1="15.4" x2="0.745587" y2="5.01962" gradientUnits="userSpaceOnUse">
<stop stop-color="#1C9CFC"/>
<stop offset="1" stop-color="#4CDFFF"/>
</linearGradient>
</defs>
</svg>
